!!!OTL: HINTER UNSERN PIITE
!!!ARE: Europa, Mitteleuropa, Deutschland, Brandenburg, Alt - Litzgoericke
!!!SCT: E0840
!!!YEM: Copyright 1995, estate of Helmut Schaffrath.
**kern
*ICvox
*Ivox
*M3/8
*k[f#]
*G:
{8d
=1
16g
16g
8g
8g
=2
16g
16e
8d
8d
=3
4g}
{8d
=4
16g
16g
8g
8g
=5
16g
16e
8d
8d
=6
4g}
{8dd
=7
16b
16b
8b
8dd
=8
16cc
16b
8a}
{8b
=9
16g
16g
8g
8b
=10
16a
16f#
8d
8d
=11
4g}
==
!!!AGN: Hochzeits -, Ehestands - Lied
!!!ONB: ESAC (Essen Associative Code) Database: ERK2
!!!AMT: simple triple
!!!AIN: vox
!!!EED: Helmut Schaffrath
!!!EEV: 1.0
*-
